X: 04039
T: JANIE'S POLKA
C: Bob McQuillen 24 Jan 79
B: Bob's Note Book 04 #39
R: polka
Z: 2020 John Chambers <jc:trillian.mit.edu>
M: C
L: 1/4
K: Dmix
N: Should the key be D major?
FG \
| A>B AG | FG A2 | f>e dB | AG FA | G>A GF | EF G2 |e>d cB | AG FG |
| A>B AG | FG A2 | f>e dB | AG FA | G>A GF | EA ce | ed f>e | d2 ||
|| fg \
| a>b ag | fg a2 | ba af | df af | g>a gf | ef g2 | ge cA | efge |
| a>b ag | fg af | ba af | df a2 | g>a gf | ef ge | ed d>c | d2 |]
%%begintext align
%% There's a whole bunch of
%% Torreys and they're all
%% nice. This tune is for
%% Jane Torrey. Hope you like it, Janie!
%%endtext

%%sep 1 1 500

%%sep 1 1 500

